X:792
T:Reel 792
M:4/4
K:Emin
L:1/8
fe|dBB2 dBdB|dedB efge|dBB2 dege|dBAF E2:|GA|Bdgf edfe|dBBc dege|deBe defa|gfed efga|bagb agfg|afdf gfga|bc'af gefd|Bedf e2|
